svg/fluentui-system-icons/ic_fluent_hourglass_16_filled.svg

<svg width="16" height="16" viewBox="0 0 16 16" fill="none" xmlns="http://www.w3.org/2000/svg">
<path d="M5.33571 4.11435C5.20502 3.86796 5.08018 3.5195 5.02695 3H10.9723C10.9191 3.51949 10.7943 3.86794 10.6636 4.11431C10.4991 4.42433 10.2781 4.66331 9.98208 4.9191C9.87188 5.01433 9.77307 5.09412 9.65872 5.18647C9.60171 5.23251 9.54079 5.28172 9.4727 5.33747C9.29157 5.48581 9.06771 5.67474 8.85982 5.89674C8.40242 6.38517 7.99974 7.06166 7.99967 7.99976C7.99952 7.06162 7.59679 6.38514 7.13939 5.89673C6.93151 5.67474 6.70767 5.48582 6.52654 5.33749C6.45847 5.28174 6.39759 5.23257 6.34058 5.18653C6.22622 5.09417 6.12741 5.01437 6.0172 4.91913C5.72122 4.66336 5.50017 4.42437 5.33571 4.11435ZM10.9709 13H5.02539C5.0792 12.481 5.20433 12.1326 5.33531 11.8861C5.50019 11.5759 5.72161 11.3367 6.01779 11.0808C6.1279 10.9857 6.2265 10.9061 6.34056 10.8139C6.39779 10.7677 6.45891 10.7184 6.52732 10.6623C6.70847 10.5139 6.9323 10.325 7.14016 10.1029C7.59751 9.61431 7.99975 8.93757 7.99967 7.99976C7.99967 8.93715 8.40139 9.61371 8.85842 10.1024C9.06609 10.3245 9.28973 10.5135 9.47071 10.6619C9.53898 10.7178 9.59998 10.7672 9.6571 10.8133C9.77104 10.9054 9.86968 10.9852 9.97966 11.0803C10.2754 11.3361 10.4966 11.5752 10.6612 11.8855C10.7921 12.1321 10.9172 12.4806 10.9709 13Z" fill="#212121"/>
</svg>

<svg xmlns="http://www.w3.org/2000/svg" width="16" height="16"><path d="M5.336 4.114C5.205 3.868 5.08 3.52 5.026 3h5.946c-.053.52-.178.868-.308 1.114-.165.31-.386.55-.682.805-.11.095-.209.175-.323.267l-.186.151a6.29 6.29 0 0 0-.613.56C8.402 6.385 8 7.062 8 8c0-.938-.403-1.615-.86-2.103a6.289 6.289 0 0 0-.613-.56 33.595 33.595 0 0 0-.186-.15c-.115-.093-.214-.173-.324-.268-.296-.256-.517-.495-.681-.805ZM10.97 13H5.025c.054-.519.18-.867.31-1.114.165-.31.387-.55.683-.805.11-.095.208-.175.323-.267l.186-.152c.181-.148.405-.337.613-.56C7.598 9.615 8 8.939 8 8c0 .937.401 1.614.858 2.102.208.223.432.412.613.56l.186.151c.114.092.213.172.323.267.295.256.517.495.681.806.131.246.256.595.31 1.114Z"/></svg>
